packages/ui-icons/src/Service-logos/24/Messenger.svg

<?xml version="1.0" encoding="UTF-8"?>
<svg viewBox="0 0 32 32" version="1.1" xmlns="http://www.w3.org/2000/svg" xmlns:xlink="http://www.w3.org/1999/xlink">
    <!-- Generator: Sketch 48.2 (47327) - http://www.bohemiancoding.com/sketch -->
    <title>logo/24/messenger</title>
    <desc>Created with Sketch.</desc>
    <defs></defs>
    <g id="Icons" stroke="none" stroke-width="1" fill="none" fill-rule="evenodd">
        <g id="logo/24/messenger">
            <g id="messenger" transform="translate(4.000000, 4.000000)">
                <circle id="Oval-2-Copy" fill="#0084FF" cx="12" cy="12" r="12"></circle>
                <path d="M12,5.5 C8.13425,5.5 5,8.4015 5,11.9814167 C5,14.0219167 6.01733333,15.8395833 7.60691667,17.0295833 L7.60691667,19.5 L9.99158333,18.1921667 C10.6285833,18.3671667 11.30175,18.4628333 12,18.4628333 C15.86575,18.4628333 19,15.56075 19,11.982 C19,8.40325 15.86575,5.5 12,5.5 Z M12.69475,14.2284167 L10.9126667,12.32675 L7.43425,14.2284167 L11.2603333,10.1666667 L13.08675,12.06775 L16.522,10.1666667 L12.69475,14.2284167 Z" id="Shape" fill="#FFFFFF" fill-rule="nonzero"></path>
            </g>
        </g>
    </g>
</svg>

<svg viewBox="0 0 32 32" xmlns="http://www.w3.org/2000/svg"><g transform="translate(4 4)" fill="none" fill-rule="evenodd"><circle fill="#0084FF" cx="12" cy="12" r="12"/><path d="M12 5.5c-3.866 0-7 2.902-7 6.481 0 2.04 1.017 3.859 2.607 5.049v2.47l2.385-1.308a7.57 7.57 0 0 0 2.008.27c3.866 0 7-2.901 7-6.48C19 8.403 15.866 5.5 12 5.5Zm.695 8.728-1.782-1.901-3.479 1.901 3.826-4.061 1.827 1.9 3.435-1.9-3.827 4.061Z" fill="#FFF" fill-rule="nonzero"/></g></svg>
